Flat-Remix-Dark/apps/scalable/eclipse.svg

<svg xmlns="http://www.w3.org/2000/svg" xmlns:xlink="http://www.w3.org/1999/xlink" width="384pt" height="384pt" version="1.1" viewBox="0 0 384 384"> <defs> <filter id="alpha" width="100%" height="100%" x="0%" y="0%" filterUnits="objectBoundingBox"> <feColorMatrix in="SourceGraphic" type="matrix" values="0 0 0 0 1 0 0 0 0 1 0 0 0 0 1 0 0 0 1 0"/> </filter> <mask id="mask0"> <g filter="url(#alpha)"> <rect width="384" height="384" x="0" y="0" style="fill:rgb(0%,0%,0%);fill-opacity:0.301961"/> </g> </mask> <clipPath id="clip1"> <rect width="384" height="384" x="0" y="0"/> </clipPath> <g id="surface5" clip-path="url(#clip1)"> <path style="fill-rule:evenodd;fill:rgb(0%,0%,0%)" d="M 326.792969 200.578125 C 326.792969 126.140625 266.449219 65.796875 192.011719 65.796875 C 117.574219 65.796875 57.230469 126.140625 57.230469 200.578125 C 57.230469 275.015625 117.574219 335.359375 192.011719 335.359375 C 266.449219 335.359375 326.792969 275.015625 326.792969 200.578125 Z M 326.792969 200.578125"/> </g> </defs> <g> <path style="fill-rule:evenodd;fill:rgb(54.901%,25.882%,67.058%)" d="M 360.75 192 C 360.75 98.800781 285.199219 23.25 192 23.25 C 98.800781 23.25 23.25 98.800781 23.25 192 C 23.25 285.199219 98.800781 360.75 192 360.75 C 285.199219 360.75 360.75 285.199219 360.75 192 Z M 360.75 192"/> <use mask="url(#mask0)" xlink:href="#surface5"/> <path style="fill-rule:evenodd;fill:rgb(9.803%,9.803%,9.803%)" d="M 326.792969 192.421875 C 326.792969 117.984375 266.449219 57.640625 192.011719 57.640625 C 117.574219 57.640625 57.230469 117.984375 57.230469 192.421875 C 57.230469 266.859375 117.574219 327.203125 192.011719 327.203125 C 266.449219 327.203125 326.792969 266.859375 326.792969 192.421875 Z M 326.792969 192.421875"/> <path style="fill-rule:evenodd;fill:rgb(54.901%,25.882%,67.058%)" d="M 205.5625 93.609375 C 176.175781 93.609375 146.984375 105.722656 126.21875 126.511719 C 105.453125 147.304688 93.367188 176.519531 93.367188 205.921875 C 93.367188 235.324219 105.453125 264.539062 126.21875 285.332031 C 128.742188 287.855469 131.382812 290.25 134.140625 292.511719 C 117.71875 272.53125 108.332031 246.792969 108.332031 220.898438 C 108.332031 191.496094 120.421875 162.28125 141.183594 141.488281 C 161.949219 120.695312 191.140625 108.585938 220.527344 108.582031 C 246.378906 108.582031 272.082031 117.957031 292.050781 134.367188 C 289.804688 131.636719 287.449219 129 284.949219 126.5 C 264.15625 105.707031 234.949219 93.605469 205.5625 93.609375 Z M 205.5625 93.609375"/> <path style="fill-rule:evenodd;fill:rgb(100.000%,100.000%,100.000%)" d="M 192.0625 80.109375 C 162.675781 80.109375 133.484375 92.222656 112.71875 113.011719 C 91.953125 133.804688 79.867188 163.019531 79.867188 192.421875 C 79.867188 221.824219 91.953125 251.039062 112.71875 271.832031 C 115.242188 274.355469 117.882812 276.75 120.640625 279.011719 C 104.21875 259.03125 94.832031 233.292969 94.832031 207.398438 C 94.832031 177.996094 106.921875 148.78125 127.683594 127.988281 C 148.449219 107.195312 177.640625 95.085938 207.027344 95.082031 C 232.878906 95.082031 258.582031 104.457031 278.550781 120.867188 C 276.304688 118.136719 273.949219 115.5 271.449219 113 C 250.65625 92.207031 221.449219 80.105469 192.0625 80.109375 Z M 192.0625 80.109375"/> </g> </svg>

<svg width="512" height="512" version="1.1" viewBox="0 0 384 384" xmlns="http://www.w3.org/2000/svg"><defs><clipPath><rect width="384" height="384"/></clipPath></defs><g fill-rule="evenodd"><path d="m360.75 192c0-93.199-75.551-168.75-168.75-168.75-93.199 0-168.75 75.551-168.75 168.75 0 93.199 75.551 168.75 168.75 168.75 93.199 0 168.75-75.551 168.75-168.75z" fill="#8a3fab"/><path d="m326.79 199.92c0-74.437-60.344-134.78-134.78-134.78s-134.78 60.344-134.78 134.78c0 74.438 60.344 134.78 134.78 134.78s134.78-60.344 134.78-134.78z" fill="#2b2b2b" opacity=".3"/><path d="m326.79 192.42c0-74.437-60.344-134.78-134.78-134.78s-134.78 60.344-134.78 134.78c0 74.438 60.344 134.78 134.78 134.78s134.78-60.344 134.78-134.78z" fill="#171717"/><path d="m205.56 93.609c-29.387 0-58.578 12.113-79.344 32.902-20.766 20.793-32.852 50.008-32.852 79.41 0 29.402 12.086 58.617 32.852 79.41 2.5234 2.5234 5.1641 4.918 7.9219 7.1797-16.422-19.98-25.809-45.719-25.809-71.613 0-29.402 12.09-58.617 32.852-79.41 20.766-20.793 49.957-32.902 79.344-32.906 25.852 0 51.555 9.375 71.523 25.785-2.2461-2.7305-4.6016-5.3672-7.1016-7.8672-20.793-20.793-50-32.895-79.387-32.891z" fill="#8a3fab"/><path d="m192.06 80.109c-29.387 0-58.578 12.113-79.344 32.902-20.766 20.793-32.852 50.008-32.852 79.41 0 29.402 12.086 58.617 32.852 79.41 2.5234 2.5234 5.1641 4.918 7.9219 7.1797-16.422-19.98-25.809-45.719-25.809-71.613 0-29.402 12.09-58.617 32.852-79.41 20.766-20.793 49.957-32.902 79.344-32.906 25.852 0 51.555 9.375 71.523 25.785-2.2461-2.7305-4.6016-5.3672-7.1016-7.8672-20.793-20.793-50-32.895-79.387-32.891z" fill="#fff"/><path transform="scale(.75)" d="m31.064 251c-0.036282 1.6632-0.064453 3.3281-0.064453 5 0 124.27 100.73 225 225 225 124.27 0 225-100.73 225-225 0-1.6719-0.02817-3.3368-0.06445-5-2.6604 121.96-102.34 220-224.94 220-122.59 0-222.28-98.045-224.94-220z" opacity=".3" stroke-width="1.3333"/><path transform="scale(.75)" d="m256 31c-124.27 0-225 100.73-225 225 0 1.6719 0.028171 3.3368 0.064453 5 2.6604-121.96 102.34-220 224.94-220s222.28 98.045 224.94 220c0.03628-1.6632 0.06445-3.3281 0.06445-5 0-124.27-100.73-225-225-225z" fill="#fff" opacity=".3" stroke-width="1.3333"/></g></svg>
